X: 2 % start of header
T:Iridis Alpha Title Theme
T:40 of 100,000,000,000,000
C: (Sid.)
O: Jeff Minter
R:Procedurally Generated
L: 1/8
K: D % scale: C major
V:1 name="Voice 1"
^G,16    |     |     |     | C16    |     |     |     | E16    |     |     |     | ^C16    |     |     |     | ^G,16    |     |     |     | C16    |     |     |     | E16    |     |     |     | ^C16    |     |     |     | C16    |     |     |     | E16    |     |     |     | ^G16    |     |     |     | F16    |     |     |     | E16    |     |     |     | ^G16    |     |     |     | c16    |     |     |     | A16    |     |     |     | :|
V:2 name="Voice 2"
C4    | E4    | ^G4    | F4    | E4    | ^G4    | c4    | A4    | ^G4    | c4    | e4    | ^c4    | F4    | A4    | ^c4    | ^A4    | C4    | E4    | ^G4    | F4    | E4    | ^G4    | c4    | A4    | ^G4    | c4    | e4    | ^c4    | F4    | A4    | ^c4    | ^A4    | E4    | ^G4    | c4    | A4    | ^G4    | c4    | e4    | ^c4    | c4    | e4    | ^g4    | f4    | A4    | ^c4    | f4    | d4    | ^G4    | c4    | e4    | ^c4    | c4    | e4    | ^g4    | f4    | e4    | ^g4    | c'4    | a4    | ^c4    | f4    | a4    | ^f4    | :|
V:3 name="Voice 3"
E1^G1c1A1|^G1c1e1^c1|c1e1^g1f1|A1^c1f1d1|^G1c1e1^c1|c1e1^g1f1|e1^g1c'1a1|^c1f1a1^f1|c1e1^g1f1|e1^g1c'1a1|^g1c'1e'1^c'1|f1a1^c'1^a1|A1^c1f1d1|^c1f1a1^f1|f1a1^c'1^a1|d1^f1^a1g1|E1^G1c1A1|^G1c1e1^c1|c1e1^g1f1|A1^c1f1d1|^G1c1e1^c1|c1e1^g1f1|e1^g1c'1a1|^c1f1a1^f1|c1e1^g1f1|e1^g1c'1a1|^g1c'1e'1^c'1|f1a1^c'1^a1|A1^c1f1d1|^c1f1a1^f1|f1a1^c'1^a1|d1^f1^a1g1|^G1c1e1^c1|c1e1^g1f1|e1^g1c'1a1|^c1f1a1^f1|c1e1^g1f1|e1^g1c'1a1|^g1c'1e'1^c'1|f1a1^c'1^a1|e1^g1c'1a1|^g1c'1e'1^c'1|c'1e'1^g'1f'1|a1^c'1f'1d'1|^c1f1a1^f1|f1a1^c'1^a1|a1^c'1f'1d'1|^f1^a1d'1b1|c1e1^g1f1|e1^g1c'1a1|^g1c'1e'1^c'1|f1a1^c'1^a1|e1^g1c'1a1|^g1c'1e'1^c'1|c'1e'1^g'1f'1|a1^c'1f'1d'1|^g1c'1e'1^c'1|c'1e'1^g'1f'1|e'1^g'1c''1a'1|^c'1f'1a'1^f'1|f1a1^c'1^a1|a1^c'1f'1d'1|^c'1f'1a'1^f'1|^a1d'1^f'1^d'1|:|
